2 Export/Icons/Brands/Google Play.svg

<svg xmlns="http://www.w3.org/2000/svg" xmlns:xlink="http://www.w3.org/1999/xlink" width="24" height="24" viewBox="0 0 24 24">
  <defs>
    <path id="google-play-a" d="M4.045,3 C4.0225,3.06975 4,3.13875 4,3.231 L4,20.65275 C4,20.8155 4.04575,20.90775 4.138,21 L12.69925,11.93025 L4.045,3 Z M13.27675,12.531 L15.49,14.81475 L12.33025,16.61475 C12.33025,16.61475 8.314,18.89775 6.09925,20.169 L13.27675,12.531 Z M13.8775,11.90775 L16.252,14.37675 C16.624,14.16975 19.53025,12.50775 19.945,12.27675 C20.383,12.02325 20.33875,11.67675 19.96675,11.49225 C19.6225,11.301 16.71625,9.636 16.27675,9.366 L13.8745,11.91 L13.8775,11.90775 L13.8775,11.90775 Z M13.27525,11.30775 L15.51325,8.931 L12.319,7.10775 C12.319,7.10775 7.11175,4.12875 5.37925,3.13425 L13.27675,11.30775 L13.27525,11.30775 Z"/>
  </defs>
  <g fill="none" fill-rule="evenodd">
    <polygon points="0 0 24 0 24 24 0 24"/>
    <mask id="google-play-b" fill="#fff">
      <use xlink:href="#google-play-a"/>
    </mask>
    <use fill="#000" xlink:href="#google-play-a"/>
    <g fill="#000" mask="url(#google-play-b)">
      <rect width="24" height="24"/>
    </g>
  </g>
</svg>

<svg xmlns="http://www.w3.org/2000/svg" xmlns:xlink="http://www.w3.org/1999/xlink" width="24" height="24" viewBox="0 0 24 24">
  <defs>
    <path id="google-play-a" d="M4.045 3c-.022.07-.045.139-.045.231v17.422c0 .163.046.255.138.347l8.561-9.07L4.045 3zm9.232 9.531l2.213 2.284-3.16 1.8s-4.016 2.283-6.23 3.554l7.177-7.638zm.6-.623l2.375 2.469c.372-.207 3.278-1.87 3.693-2.1.438-.254.394-.6.022-.785-.345-.191-3.25-1.856-3.69-2.126l-2.403 2.544.003-.002zm-.602-.6l2.238-2.377-3.194-1.823s-5.207-2.98-6.94-3.974l7.898 8.174h-.002z"/>
  </defs>
  <g fill="none" fill-rule="evenodd">
    <polygon points="0 0 24 0 24 24 0 24"/>
    <mask id="google-play-b" fill="#fff">
      <use xlink:href="#google-play-a"/>
    </mask>
    <use fill="#000" xlink:href="#google-play-a"/>
    <g fill="#000" mask="url(#google-play-b)">
      <rect width="24" height="24"/>
    </g>
  </g>
</svg>
